public/images/edit.svg

<svg width="24" height="24" viewBox="0 0 24 24" fill="none" xmlns="http://www.w3.org/2000/svg">
<path d="M17.1 12.2C16.6023 12.2 16.2 12.6032 16.2 13.1V20.3C16.2 20.7959 15.7968 21.2 15.3 21.2H2.7C2.2032 21.2 1.8 20.7959 1.8 20.3V7.7C1.8 7.2041 2.2032 6.8 2.7 6.8H9.9C10.3977 6.8 10.8 6.3968 10.8 5.9C10.8 5.4032 10.3977 5 9.9 5H2.7C1.2114 5 0 6.2114 0 7.7V20.3C0 21.7886 1.2114 23 2.7 23H15.3C16.7886 23 18 21.7886 18 20.3V13.1C18 12.6023 17.5977 12.2 17.1 12.2Z" fill="currentColor"/>
<path d="M8.76341 11.0752C8.70082 11.1378 8.65879 11.2174 8.64091 11.3032L8.00872 14.4652C7.97921 14.6119 8.02571 14.763 8.13122 14.8694C8.21617 14.9544 8.33063 15 8.44776 15C8.47638 15 8.50589 14.9973 8.53539 14.9911L11.6963 14.3588C11.784 14.3409 11.8635 14.2989 11.9252 14.2363L19 7.16113L15.8391 4L8.76341 11.0752Z" fill="currentColor"/>
<path d="M21.3523 1.6471C20.4896 0.784302 19.0864 0.784302 18.2246 1.6471L17 2.87182L20.1278 6L21.3523 4.77528C21.77 4.35848 22 3.80275 22 3.21163C22 2.6205 21.77 2.06478 21.3523 1.6471Z" fill="currentColor"/>
</svg>

<svg width="24" height="24" fill="none" xmlns="http://www.w3.org/2000/svg"><path d="M17.1 12.2a.9.9 0 00-.9.9v7.2a.9.9 0 01-.9.9H2.7a.9.9 0 01-.9-.9V7.7a.9.9 0 01.9-.9h7.2a.9.9 0 100-1.8H2.7A2.703 2.703 0 000 7.7v12.6C0 21.789 1.211 23 2.7 23h12.6c1.489 0 2.7-1.211 2.7-2.7v-7.2a.9.9 0 00-.9-.9z" fill="currentColor"/><path d="M8.763 11.075a.453.453 0 00-.122.228l-.632 3.162a.448.448 0 00.526.526l3.161-.632a.444.444 0 00.23-.123L19 7.161 15.84 4l-7.077 7.075zM21.352 1.647a2.213 2.213 0 00-3.127 0L17 2.872 20.128 6l1.224-1.225c.418-.417.648-.972.648-1.563 0-.592-.23-1.147-.648-1.565z" fill="currentColor"/></svg>
